X:1
T: Highland Black Laddie
C:
R:Reel
Q: 232
K:A
M:4/4
L:1/8
|:a|eA cA e2 c2|fB Bc fB Ba|eA cA e2 c2|eA Ac eA Aa|
eA cA e2 c2|fB Bc fB Ba|eA cA e2 c2|A1/2B1/2c1/2d1/2 eB cA Aa|
fe fa fe c2|fB Bc fB Ba|fe fa fe c2|eA Ac eA Aa|
fe fa fe c2|fB Bc fB Ba|fe fa fe c2|A1/2B1/2c1/2d1/2 eB cA A:|
